X:1
T:Jerry, Go an' Ile That Car
M:4/4
L:1/4
K:F
 C| F3/2 F/2 D C| c c c3/2 c/2| d c F G| D3 E| F3/2 F/2D/2 D/2 C| c c c3/2 c/2|\
d/2-c/2A/2-G/2 F G| F3| c| d d d3/2 B/2| c c c3/2 c/2| d c F G| D3 E/2E/2|\
 F3/2 F/2 D C| c c c c| d/2c/2 A/2G/2 F G| F3||
